icons/1_Primary/Registro.br.svg

<svg width="1024" height="1024" viewBox="0 0 1024 1024" fill="none" xmlns="http://www.w3.org/2000/svg">
<g clip-path="url(#clip0_2_3318)">
<path d="M512 1024C794.77 1024 1024 794.77 1024 512C1024 229.23 794.77 0 512 0C229.23 0 0 229.23 0 512C0 794.77 229.23 1024 512 1024Z" fill="#98DC9A"/>
<path d="M712.63 344.67V412.67C704.96 406.09 696.18 403.9 686.32 405C676.46 406.1 667.68 412.67 658.91 423.64V754.74H597.51V348H658.91V369.93C672.07 352.35 690.71 343.58 712.63 344.67ZM560.24 379.76C564.63 388.53 566.82 403.88 566.82 424.76V681.25C566.82 700.98 564.63 714.14 561.34 722.91C556.95 731.68 549.28 740.45 539.41 747.03C529.54 754.7 516.41 758.03 502.13 758.03H499.94C479.11 758.03 461.57 750.36 448.41 735.03C445.184 732.796 441.332 731.644 437.41 731.74C434.17 731.653 431.023 732.834 428.64 735.03C427.54 736.13 426.45 738.32 424.25 739.42L423.15 740.52C412.15 750.39 395.74 756.97 379.3 756.97C342.02 756.97 311.3 726.27 311.3 688.97C311.3 653.89 336.52 626.48 369.41 620.97C380.41 618.78 384.76 608.91 384.76 599.04V246H446.16V369.89C459.32 353.44 476.86 344.67 498.79 344.67C514.14 344.67 526.2 347.96 537.16 355.67C546.48 361.965 554.349 370.179 560.24 379.76ZM414.42 688.93C414.42 669.2 397.97 653.85 379.34 653.85C372.402 653.85 365.619 655.907 359.85 659.762C354.082 663.617 349.585 669.095 346.93 675.505C344.275 681.916 343.58 688.969 344.934 695.774C346.287 702.579 349.628 708.829 354.535 713.735C359.441 718.641 365.691 721.982 372.496 723.336C379.301 724.69 386.354 723.995 392.764 721.34C399.174 718.685 404.653 714.188 408.508 708.419C412.362 702.651 414.42 695.868 414.42 688.93ZM504.32 432.38C504.32 424.71 502.13 418.13 496.65 413.74C491.17 407.16 482.4 404.97 472.53 406.07C462.66 407.17 453.89 413.74 446.22 424.71V679.06C453.89 691.12 463.76 697.7 472.53 698.79C482.4 699.89 490.07 697.69 496.65 691.12C502.13 686.73 504.32 680.12 504.32 672.48V432.38Z" fill="white"/>
</g>
<defs>
<clipPath id="clip0_2_3318">
<rect width="1024" height="1024" fill="white"/>
</clipPath>
</defs>
</svg>

<svg width="1024" height="1024" fill="none" xmlns="http://www.w3.org/2000/svg"><g clip-path="url(#a)"><path d="M512 1024c282.77 0 512-229.23 512-512S794.77 0 512 0 0 229.23 0 512s229.23 512 512 512Z" fill="#98DC9A"/><path d="M712.63 344.67v68c-7.67-6.58-16.45-8.77-26.31-7.67-9.86 1.1-18.64 7.67-27.41 18.64v331.1h-61.4V348h61.4v21.93c13.16-17.58 31.8-26.35 53.72-25.26Zm-152.39 35.09c4.39 8.77 6.58 24.12 6.58 45v256.49c0 19.73-2.19 32.89-5.48 41.66-4.39 8.77-12.06 17.54-21.93 24.12-9.87 7.67-23 11-37.28 11h-2.19c-20.83 0-38.37-7.67-51.53-23a18.526 18.526 0 0 0-11-3.29 12.45 12.45 0 0 0-8.77 3.29c-1.1 1.1-2.19 3.29-4.39 4.39l-1.1 1.1c-11 9.87-27.41 16.45-43.85 16.45-37.28 0-68-30.7-68-68 0-35.08 25.22-62.49 58.11-68 11-2.19 15.35-12.06 15.35-21.93V246h61.4v123.89c13.16-16.45 30.7-25.22 52.63-25.22 15.35 0 27.41 3.29 38.37 11a79.008 79.008 0 0 1 23.08 24.09ZM414.42 688.93c0-19.73-16.45-35.08-35.08-35.08a35.08 35.08 0 1 0 35.08 35.08Zm89.9-256.55c0-7.67-2.19-14.25-7.67-18.64-5.48-6.58-14.25-8.77-24.12-7.67-9.87 1.1-18.64 7.67-26.31 18.64v254.35c7.67 12.06 17.54 18.64 26.31 19.73 9.87 1.1 17.54-1.1 24.12-7.67 5.48-4.39 7.67-11 7.67-18.64v-240.1Z" fill="#fff"/></g><defs><clipPath id="a"><path fill="#fff" d="M0 0h1024v1024H0z"/></clipPath></defs></svg>
